X:3201
T:College Groves
Z: id:dc-reel-39
M:C
L:1/8
K:D Mixolydian
A,|D2FD ADFD|EEcE dEcE|D2FA d3B|cAGE EDD:|!
g|fdd2 faaf|ecc2 egge|fdd^c dcAB|cAGE EDDg|!
fdd2 faaf|ecc2 egge|d2eg fagb|afge fdd|]!
e|fgag fdd2|efgf ecc2|fgag fddB|cAGE EDDe|!
fgag fdd2|efgf ecc2|d2eg fagb|afge fdd|]!
K:D Major
e|f2df f2df|e2ce Aece|f2df f2af|e2cf edde|!
f2df f2df|e2ce Aece|d2eg fagb|afge fdd|]!


